src/assets/duotone/MusicPlaylist.svg

<svg width="24" height="24" viewBox="0 0 24 24"  xmlns="http://www.w3.org/2000/svg">
<path d="M18 5.25H6C5.59 5.25 5.25 4.91 5.25 4.5C5.25 4.09 5.59 3.75 6 3.75H18C18.41 3.75 18.75 4.09 18.75 4.5C18.75 4.91 18.41 5.25 18 5.25Z" />
<path d="M15 2.75H9C8.59 2.75 8.25 2.41 8.25 2C8.25 1.59 8.59 1.25 9 1.25H15C15.41 1.25 15.75 1.59 15.75 2C15.75 2.41 15.41 2.75 15 2.75Z" />
<path opacity="0.4" d="M18 7H6C3.8 7 2 8.8 2 11V18C2 20.2 3.8 22 6 22H18C20.2 22 22 20.2 22 18V11C22 8.8 20.2 7 18 7Z" />
<path d="M15.37 9.88994C15.07 9.64994 14.52 9.41995 13.64 9.64995L10.91 10.4C10.06 10.62 9.51001 11.3399 9.51001 12.2299V13.8299V15.7299C9.31001 15.6699 9.11001 15.6299 8.89001 15.6299C7.72001 15.6299 6.77002 16.5799 6.77002 17.7499C6.77002 18.9199 7.72001 19.8699 8.89001 19.8699C10.06 19.8699 11.01 18.9199 11.01 17.7499V17.7399V14.4099L14.53 13.4499V14.8199C14.33 14.7599 14.13 14.7199 13.91 14.7199C12.74 14.7199 11.79 15.67 11.79 16.84C11.79 18.01 12.74 18.96 13.91 18.96C15.06 18.96 16 18.0399 16.02 16.8899C16.02 16.8699 16.03 16.86 16.03 16.84V12.4699V11.4899C16.03 10.5899 15.67 10.1199 15.37 9.88994ZM8.89001 18.3599C8.55001 18.3599 8.27002 18.0799 8.27002 17.7399C8.27002 17.3999 8.55001 17.1199 8.89001 17.1199C9.23001 17.1199 9.50001 17.3899 9.51001 17.7299C9.51001 18.0799 9.23001 18.3599 8.89001 18.3599ZM13.91 17.4499C13.57 17.4499 13.29 17.1699 13.29 16.8299C13.29 16.4899 13.57 16.21 13.91 16.21C14.25 16.21 14.53 16.4899 14.53 16.8299C14.53 17.1699 14.25 17.4499 13.91 17.4499Z" />
</svg>

<?xml version="1.0" encoding="UTF-8"?>
<svg width="24" height="24" viewBox="0 0 24 24" xmlns="http://www.w3.org/2000/svg">
 <path d="m18 5.25h-12c-0.41 0-0.75-0.34-0.75-0.75s0.34-0.75 0.75-0.75h12c0.41 0 0.75 0.34 0.75 0.75s-0.34 0.75-0.75 0.75z"/>
 <path d="m15 2.75h-6c-0.41 0-0.75-0.34-0.75-0.75s0.34-0.75 0.75-0.75h6c0.41 0 0.75 0.34 0.75 0.75s-0.34 0.75-0.75 0.75z"/>
 <path d="m18 7h-12c-2.2 0-4 1.8-4 4v7c0 2.2 1.8 4 4 4h12c2.2 0 4-1.8 4-4v-7c0-2.2-1.8-4-4-4z" opacity=".4"/>
 <path d="m15.37 9.8899c-0.3-0.24-0.85-0.46999-1.73-0.23999l-2.73 0.75005c-0.85 0.22-1.4 0.9399-1.4 1.8299v3.5c-0.2-0.06-0.4-0.1-0.62-0.1-1.17 0-2.12 0.95-2.12 2.12s0.94999 2.12 2.12 2.12c1.17 0 2.12-0.95 2.12-2.12v-3.34l3.52-0.96v1.37c-0.2-0.06-0.4-0.1-0.62-0.1-1.17 0-2.12 0.9501-2.12 2.1201s0.95 2.12 2.12 2.12c1.15 0 2.09-0.9201 2.11-2.0701 0-0.02 0.01-0.0299 0.01-0.0499v-5.3501c0-0.9-0.36-1.37-0.66-1.6zm-6.48 8.47c-0.34 0-0.61999-0.28-0.61999-0.62s0.27999-0.62 0.61999-0.62 0.61 0.27 0.62 0.61c0 0.35-0.28 0.63-0.62 0.63zm5.02-0.91c-0.34 0-0.62-0.28-0.62-0.62s0.28-0.6199 0.62-0.6199 0.62 0.2799 0.62 0.6199-0.28 0.62-0.62 0.62z"/>
</svg>
